public/logo_light.svg

<svg xmlns="http://www.w3.org/2000/svg" width="951" height="851" fill="none" viewBox="0 0 951 851"><path fill="#000" d="M49.08 559.612c41.555-31.011 67.005-47.245 116.5-73.999l-33.5-24.5c15.666-11.769 23.264-18.881 48.5-26.5-19.915-9.904-33.473-11.529-57-15.5 49.208-42.261 41.379-69.792 248-95 36.452 38.247 40.166 66.133 149 76.5-34.071-37.406-31.748-43.332-37-60.5 27.111 21.371 40.59 38.139 74 42-4.918-21.969-9.517-43.807 0-57.501s201.895 26.19 246.5 95.001c-30.34-.863-29.416 1.024-34.5 3.5 22.343 21.419 35.812 32.883 53.5 57-18.432-6.232-28.623-4.352-37 0 35.114 28.314 55.445 42.457 87.5 78.999 71.073-96.251 55.657-123.143 55.5-184.499-20.175 19.936-29.083 16.873-46 17.5 27.296-62.095 16.594-112.196 3-170.5-54.479 45.323-72.171 31.392-83 28 11.122-80.856 88.5-131.501 145-135.5 32.224-2.282-231.084-129.795-464.5-112.501-175.836 13.028-334.708 173.23-337.5 167.001-6.5-14.5 27.721-61.764 32-77 4.278-15.237-126.282 61.89-132.5 199.5l-44-25c-5.989 114.568 4.042 178.83 47.5 293.499"/><path fill="#d9d9d9" d="M256.5 296.925c-183.276 74.541-207 150.001-207 239-21-41.499-32.5-134.5-25-209l19 18-26.5-51 39.5 34.5c14.62-85.188 17.547-135.258 84.5-191.5-3.647 28.062-10.688 40.816 2 77 310-296.5 632-173.5 751-109-379-95.5-523 11.5-610.5 80.5 67.115-5.658 98.922-18.81 192 17-258 20.5-298.5 84.5-325 104 35.816-8.14 53.99-14.218 106-9.5M880.5 240c-10 26.5-38 33.5-66.5 20.5 27.629-.145 42.234-4.423 66.5-20.5M924.411 385.456c-8.847 22.555-23.981 26.433-36.5 12.627 13.964 2.139 21.948-.436 36.5-12.627"/><path fill="#000" fill-rule="evenodd" d="M61 604.729c143.126-34.26 339.054-15.165 364.054 20.335h76c42.696-53.432 360.575-25.635 358.5-16.5 0 0 4.392 24.379 0 40-2.914 10.816-14.325 11.469-17 21-33.113 118.004-35.554 133.936-64 159.5C744.5 855 617 858.5 582.554 834.564c-51.054-35.477-60.841-87.725-81.5-152.5-19.974-10.482-38.612-19.046-69.5 0-43.5 128-56.468 130.822-75.055 147-27.5 23.936-170.283 22.215-198 0C116 795 105.085 734.894 87.499 670c-4-12.069-21.845-11.928-26.5-26.271-3.61-16.995-1.706-24.604 0-39m730.352 35.87c-32.852-28.599-199.851-33.599-233.5 0-27.942 27.901-12.352 116.901 37 166 33 29 126.148 27.401 168 0 34.441-22.549 55-145.5 28.5-166m-418.78-3.237c-33.648-33.599-200.648-28.599-233.5 0-26.5 20.5-5.941 143.451 28.5 166 41.852 27.4 135 29 168 0 49.351-49.099 64.941-138.099 37-166" clip-rule="evenodd"/></svg>

<svg width="951" height="851" viewBox="0 0 951 851" fill="none" xmlns="http://www.w3.org/2000/svg">
<path d="M49.0798 559.612C90.6346 528.601 116.085 512.367 165.58 485.613L132.08 461.113C147.746 449.344 155.344 442.232 180.58 434.613C160.665 424.709 147.107 423.084 123.58 419.113C172.788 376.852 164.959 349.321 371.58 324.113C408.032 362.36 411.746 390.246 520.58 400.613C486.509 363.207 488.832 357.281 483.58 340.113C510.691 361.484 524.17 378.252 557.58 382.113C552.662 360.144 548.063 338.306 557.58 324.612C567.096 310.918 759.475 350.802 804.08 419.613C773.74 418.75 774.664 420.637 769.58 423.113C791.923 444.532 805.392 455.996 823.08 480.113C804.648 473.881 794.457 475.761 786.08 480.113C821.194 508.427 841.525 522.57 873.58 559.112C944.653 462.861 929.237 435.969 929.08 374.613C908.905 394.549 899.997 391.486 883.08 392.113C910.376 330.018 899.674 279.917 886.08 221.613C831.601 266.936 813.909 253.005 803.08 249.613C814.202 168.757 891.58 118.112 948.08 114.113C980.304 111.831 716.996 -15.6822 483.58 1.61198C307.744 14.6399 148.872 174.842 146.08 168.613C139.58 154.113 173.801 106.849 178.08 91.6125C182.358 76.3757 51.7984 153.503 45.5798 291.113L1.57976 266.113C-4.40867 380.681 5.62228 444.943 49.0798 559.612Z" fill="black"/>
<path d="M256.5 296.925C73.2239 371.466 49.5 446.926 49.5 535.925C28.5 494.426 17 401.425 24.5 326.925L43.5 344.925L17 293.925L56.5 328.425C71.1205 243.237 74.0474 193.167 141 136.925C137.353 164.987 130.312 177.741 143 213.925C453 -82.5745 775 40.4255 894 104.925C515 9.42546 371 116.425 283.5 185.425C350.615 179.767 382.422 166.615 475.5 202.425C217.5 222.925 177 286.925 150.5 306.425C186.316 298.285 204.49 292.207 256.5 296.925Z" fill="#D9D9D9"/>
<path d="M880.5 240C870.5 266.5 842.5 273.5 814 260.5C841.629 260.355 856.234 256.077 880.5 240Z" fill="#D9D9D9"/>
<path d="M924.411 385.456C915.564 408.011 900.43 411.889 887.911 398.083C901.875 400.222 909.859 397.647 924.411 385.456Z" fill="#D9D9D9"/>
<path fill-rule="evenodd" clip-rule="evenodd" d="M60.9995 604.729C204.126 570.469 400.054 589.564 425.054 625.064H501.054C543.75 571.632 861.629 599.429 859.554 608.564C859.554 608.564 863.946 632.943 859.554 648.564C856.64 659.38 845.229 660.033 842.554 669.564C809.441 787.568 807 803.5 778.554 829.064C744.5 855 617 858.5 582.554 834.564C531.5 799.087 521.713 746.839 501.054 682.064C481.08 671.582 462.442 663.018 431.554 682.064C388.054 810.064 375.086 812.886 356.499 829.064C328.999 853 186.216 851.279 158.499 829.064C116 795 105.085 734.894 87.4995 670C83.4996 657.931 65.6537 658.072 60.9995 643.729C57.3889 626.734 59.2931 619.125 60.9995 604.729ZM791.352 640.599C758.5 612 591.501 607 557.852 640.599C529.91 668.5 545.5 757.5 594.852 806.599C627.852 835.599 721 834 762.852 806.599C797.293 784.05 817.852 661.099 791.352 640.599ZM372.572 637.362C338.924 603.763 171.924 608.763 139.072 637.362C112.572 657.862 133.131 780.813 167.572 803.362C209.424 830.762 302.572 832.362 335.572 803.362C384.923 754.263 400.513 665.263 372.572 637.362Z" fill="black"/>
</svg>
